X:1
T:Rally Round the Flag
B:CCDB
M:4/4
L:1/8
Q:1/8=210
K:D
z d/e/|ff f>e d2 B>c|dd d>c B4|A2A>G FA de|f4e2 d>e|
ff f>e d2B>c|dd d>c B4|A2A>G FA df|e4d3 a |
a2f>g ab2a|a2f>g a3z|a2 f>g ab2a|a2fde2de|
ff f>e d2B>c|dd d>cB3z|A2A>G FA df|e4d2z :|
